X: 433
T: The Britches Full Of Stitches
B: jims roots
M:2/4
L:1/4
Q: 1/4=100
K:Amaj
V:1 
%R: polka
|: E/F/ |"A"A>B cA | "Bm"BA "E"cA | "A"A>B c/B/A | "Bm"FA "D"EF |
"A"AA/B/ cA | "Bm"BA "E"ce | "A"A>B AF | "Bm"FE "E"E :|
c/d/ |"A"ee/f/ ec | "Bm"BA "E"Bc | "A"e>f ec | "Bm"BA "D"F2 |
"A"e>f ec | "Bm"BA "E"Bc | "A"AA/B/ c/B/A | "Bm"FA "E"Ec/d/ ||
"A"ef ec | "Bm"B>^A "E"Bc | "A"a>f e/f/e/c/ | "Bm"BA "D"FA |
"A"e2 ec | "Bm"BA "E"B2 | "A"AA/B/ A/G/F | "Bm"FE "E"E |]
% abcbook-tune_id 6298c245aa37e72e1b438a65


% abcbook-boost 0
% abcbook-tablature 
% abcbook-transpose 
% abcbook-lastupdated 1654178373505
% abcbook-soundfonts 
% abcbook-repeats 1


